X:1
T:Title
%%score { ( 1 3 4 ) | ( 2 5 ) }
L:1/8
M:4/4
K:Eb
V:1 treble nm="Grand Piano"
V:3 treble 
V:4 treble 
V:2 bass 
V:5 bass 
V:1
 z4 z2[Q:1/4=96] B,>B, | E>E G>G F>G A>D | E2 B,4 G>[FA] | [GB]>[GB] [GB]>[Gc] [FA]2 [EG]2 | %4
 [DF]6 [DB]>[FA] | G>G G>[FA] [GB]>[GB] G>E | E2 c4 c>c | c>F F>G =A2 c2 |[M:3/4] B4- [AB]2 | %9
[M:1/4] (3Bcd |[M:4/4] z2 B4 z2 | B2 (3[B,E-G-][B,E-G-][B,E-G-] [EG]2 (3EEF | %12
 G>G G>G B2 (3[B,FB][B,FA][B,EG] | [DF]6 (3[Ad][Ac][Ad] | e2 (3z EE z2 (3eee | z2 [Ac]4 z2 | %16
 [EB]>[EB] [EB]>[EB] [DB]2 (3[DA][DG][DF] |[M:3/4] E6 |] %18
V:2
 z4 z2 [E,G,]>[E,G,] | [E,G,B,]>[E,G,B,] [E,B,E]>[E,B,E] [A,B,D]>[G,B,D] [F,B,D]>[B,,A,B,] | %2
 [E,G,B,]2 [E,G,]4 [E,B,E]>[E,B,] | [E,E]>[E,E] [E,E]>[E,B,] [D,B,]2 [E,B,]2 | %4
 [B,,B,]6 [B,,F,]>[D,B,] | [E,B,E]>[E,B,E] [E,B,E]>[E,B,] [E,E]>[E,E] [E,B,E]>[G,B,_D] | %6
 [A,C]2 [A,E]4 [A,E]>[A,E] | [F,=A,E]>[F,A,E] [F,A,E]>[F,B,E] [F,CE]2 [F,A,E]2 |[M:3/4] [B,,F,]6 | %9
[M:1/4][K:treble] (3AAA |[M:4/4] G6[K:bass] z2[K:treble] | %11
 G2[K:bass] (3E,E,E, E,2 (3[E,G,][E,G,][E,A,E] | %12
 [E,B,E]>[E,B,E] [E,B,E]>[E,B,E] [E,G,E]2 (3D,D,D, | z4 B,2 z2 | %14
 [E,B,]2 (3[E,E]E,E, E,2[K:treble] (3GG_d | c2 (3A,[K:bass]A,A, A,2 (3[A,,A,][A,,A,][A,,A,] | %16
 [B,,G,]>[B,,G,] [B,,G,]>[B,,G,] [B,,F,]2 (3[B,,B,][B,,B,][B,,A,] |[M:3/4] G,2 z2 z2 |] %18
V:3
 x8 | x8 | x8 | x8 | x8 | x8 | x8 | x8 |[M:3/4] D4 z2 |[M:1/4] x2 |[M:4/4] e2 (3z EE z2 (3GAc | %11
 z4 B,2 z2 | x8 | x8 | z2 B4 z2 | e2 (3EEE z2 (3[Ec][Ec][Ec] | x8 |[M:3/4] z2 C2 B,2 |] %18
V:4
 x8 | x8 | x8 | x8 | x8 | x8 | x8 | x8 |[M:3/4] x6 |[M:1/4] x2 |[M:4/4] z4 E2 z2 | x8 | x8 | x8 | %14
 G4- [EG]2 z2 | z4 E2 z2 | x8 |[M:3/4] x6 |] %18
V:5
 x8 | x8 | x8 | x8 | x8 | x8 | x8 | x8 |[M:3/4] x6 |[M:1/4][K:treble] x2 | %10
[M:4/4] z2[K:bass] (3[E,E]E,E, E,2 (3E[K:treble]FA | x2[K:bass] x6 | x8 | %13
 B,2 (3B,B,B, (3:2:2z2 A, (3[F,B,][F,B,][B,,B,] | x6[K:treble] x2 | x8/3[K:bass] x16/3 | x8 | %17
[M:3/4] E,2- [E,-A,]2 [E,G,]2 |] %18

